X:1
T:Title
%%score { ( 1 4 ) | ( 2 3 ) }
L:1/8
M:3/2
K:E
V:1 treble nm="Grand Piano"
V:4 treble 
V:2 bass 
V:3 bass 
V:1
 z4 z4[Q:1/4=212] G4 | G4 B4 [CEA]4 | [EG]8 [A,DF]4 | E4- [CEA]4 [CEG]4 | [EG]4 F4 [B,DF]4 | %5
 E4- [E^A]4 [B,FB]4 | [Ee]8 z4 | [Gc]4 d4 c4 | [DB]8 [^EG]4 | A4 F4 G4 | A8 z4 | c4 A4 B4 | c8 z4 | %13
 e4 B4 A4 | G4 A4 [CEc]4 | F4 z4 z4 |[M:4/4] [G,E]8 |] %17
V:2
 z4 z4 [E,B,E]4 | E4 D4 E,4 | z4 ^A,4 B,,4 | C,4 A,,4 ^A,,4 | z4 D4 B,,4 | z4 C4 D,4 | G,4 z4 z4 | %7
 B,8 z4 | [B,,B,]8 [C,B,]4 | [F,A,F]4 [A,C]4 [G,B,^E]4 | [F,F]8 [E,E]4 | [A,A]4 [CE]4 [B,=DG]4 | %12
 A4 z4 [A,B,F]4 | [G,B,E]8 [F,B,D]4 | E8 z4 | z4 G4 B,,4 |[M:4/4] E,8 |] %17
V:3
 x12 | E,8 z4 | E,8 z4 | x12 | B,,8 z4 | E,8 z4 | C,8 [B,,B,]4 | E,4 [F,F]4 [F,^A,E]4 | x12 | x12 | %10
 A,4 z4 z4 | x12 | [A,C]8 z4 | x12 | [E,B,]4 [C,C]4 A,,4 | B,,8 z4 |[M:4/4] x8 |] %17
V:4
 x12 | x12 | B,4 z4 z4 | G,4 z4 z4 | B,8 z4 | [B,G]4 z4 z4 | z4 ^A,4 [Fd]4 | x12 | x12 | x12 | %10
 z4 C4 [GB]4 | x12 | z4 E4 d4 | x12 | x12 | [B,D]8 [A,DF]4 |[M:4/4] x8 |] %17

